images/3234944.svg

<?xml version="1.0" encoding="UTF-8"?>
<svg xmlns="http://www.w3.org/2000/svg" xmlns:xlink="http://www.w3.org/1999/xlink" width="300pt" height="300pt" viewBox="0 0 300 300" version="1.1">
<defs>
<g>
<symbol overflow="visible" id="glyph0-0">
<path style="stroke:none;" d="M 0.640625 2.296875 L 0.640625 -9.171875 L 7.140625 -9.171875 L 7.140625 2.296875 Z M 1.375 1.578125 L 6.421875 1.578125 L 6.421875 -8.4375 L 1.375 -8.4375 Z M 1.375 1.578125 "/>
</symbol>
<symbol overflow="visible" id="glyph0-1">
<path style="stroke:none;" d="M 1.28125 -9.484375 L 3 -9.484375 L 7.203125 -1.546875 L 7.203125 -9.484375 L 8.453125 -9.484375 L 8.453125 0 L 6.71875 0 L 2.515625 -7.921875 L 2.515625 0 L 1.28125 0 Z M 1.28125 -9.484375 "/>
</symbol>
<symbol overflow="visible" id="glyph0-2">
<path style="stroke:none;" d="M 1.28125 -9.484375 L 2.5625 -9.484375 L 2.5625 -5.59375 L 7.21875 -5.59375 L 7.21875 -9.484375 L 8.5 -9.484375 L 8.5 0 L 7.21875 0 L 7.21875 -4.515625 L 2.5625 -4.515625 L 2.5625 0 L 1.28125 0 Z M 1.28125 -9.484375 "/>
</symbol>
</g>
</defs>
<g id="surface50413">
<rect x="0" y="0" width="300" height="300" style="fill:rgb(100%,100%,100%);fill-opacity:1;stroke:none;"/>
<path style="fill:none;stroke-width:1.2;stroke-linecap:butt;stroke-linejoin:miter;stroke:rgb(0%,0%,0%);stroke-opacity:1;stroke-miterlimit:10;" d="M 139.722656 232.058594 L 126.664062 221.855469 "/>
<path style="fill:none;stroke-width:1.2;stroke-linecap:butt;stroke-linejoin:miter;stroke:rgb(0%,0%,100%);stroke-opacity:1;stroke-miterlimit:10;" d="M 126.664062 221.855469 L 113.605469 211.648438 "/>
<path style="fill:none;stroke-width:1.2;stroke-linecap:butt;stroke-linejoin:miter;stroke:rgb(0%,0%,100%);stroke-opacity:1;stroke-miterlimit:10;" d="M 113.605469 211.648438 L 98.238281 217.859375 "/>
<path style="fill:none;stroke-width:1.2;stroke-linecap:butt;stroke-linejoin:miter;stroke:rgb(0%,0%,0%);stroke-opacity:1;stroke-miterlimit:10;" d="M 98.238281 217.859375 L 82.871094 224.066406 "/>
<path style="fill:none;stroke-width:1.2;stroke-linecap:butt;stroke-linejoin:miter;stroke:rgb(0%,0%,100%);stroke-opacity:1;stroke-miterlimit:10;" d="M 113.605469 211.648438 L 115.914062 195.238281 "/>
<path style="fill:none;stroke-width:1.2;stroke-linecap:butt;stroke-linejoin:miter;stroke:rgb(0%,0%,0%);stroke-opacity:1;stroke-miterlimit:10;" d="M 115.914062 195.238281 L 118.222656 178.828125 "/>
<path style=" stroke:none;fill-rule:nonzero;fill:rgb(100%,100%,100%);fill-opacity:1;" d="M 108.605469 203.648438 L 118.605469 203.648438 L 118.605469 219.648438 L 108.605469 219.648438 Z M 108.605469 203.648438 "/>
<g style="fill:rgb(0%,0%,100%);fill-opacity:1;">
  <use xlink:href="#glyph0-1" x="108.605469" y="216.024414"/>
</g>
<path style="fill:none;stroke-width:1.2;stroke-linecap:butt;stroke-linejoin:miter;stroke:rgb(0%,0%,0%);stroke-opacity:1;stroke-miterlimit:10;" d="M 118.222656 178.828125 L 92.101562 158.417969 "/>
<path style="fill:none;stroke-width:1.2;stroke-linecap:butt;stroke-linejoin:miter;stroke:rgb(0%,0%,0%);stroke-opacity:1;stroke-miterlimit:10;" d="M 92.101562 158.417969 L 61.367188 170.832031 "/>
<path style="fill:none;stroke-width:1.2;stroke-linecap:butt;stroke-linejoin:miter;stroke:rgb(0%,0%,0%);stroke-opacity:1;stroke-miterlimit:10;" d="M 86.109375 152.425781 L 61.519531 162.359375 "/>
<path style="fill:none;stroke-width:1.2;stroke-linecap:butt;stroke-linejoin:miter;stroke:rgb(0%,0%,0%);stroke-opacity:1;stroke-miterlimit:10;" d="M 96.71875 125.59375 L 92.101562 158.417969 "/>
<path style="fill:none;stroke-width:1.2;stroke-linecap:butt;stroke-linejoin:miter;stroke:rgb(0%,0%,0%);stroke-opacity:1;stroke-miterlimit:10;" d="M 61.367188 170.832031 L 35.25 150.421875 "/>
<path style="fill:none;stroke-width:1.2;stroke-linecap:butt;stroke-linejoin:miter;stroke:rgb(0%,0%,0%);stroke-opacity:1;stroke-miterlimit:10;" d="M 35.25 150.421875 L 39.867188 117.597656 "/>
<path style="fill:none;stroke-width:1.2;stroke-linecap:butt;stroke-linejoin:miter;stroke:rgb(0%,0%,0%);stroke-opacity:1;stroke-miterlimit:10;" d="M 43.433594 148.226562 L 47.128906 121.96875 "/>
<path style="fill:none;stroke-width:1.2;stroke-linecap:butt;stroke-linejoin:miter;stroke:rgb(0%,0%,0%);stroke-opacity:1;stroke-miterlimit:10;" d="M 39.867188 117.597656 L 70.601562 105.183594 "/>
<path style="fill:none;stroke-width:1.2;stroke-linecap:butt;stroke-linejoin:miter;stroke:rgb(0%,0%,0%);stroke-opacity:1;stroke-miterlimit:10;" d="M 70.601562 105.183594 L 96.71875 125.59375 "/>
<path style="fill:none;stroke-width:1.2;stroke-linecap:butt;stroke-linejoin:miter;stroke:rgb(0%,0%,0%);stroke-opacity:1;stroke-miterlimit:10;" d="M 68.410156 113.371094 L 89.304688 129.699219 "/>
<path style="fill:none;stroke-width:1.2;stroke-linecap:butt;stroke-linejoin:miter;stroke:rgb(0%,0%,0%);stroke-opacity:1;stroke-miterlimit:10;" d="M 96.71875 125.59375 L 127.453125 113.179688 "/>
<path style="fill:none;stroke-width:1.2;stroke-linecap:butt;stroke-linejoin:miter;stroke:rgb(0%,0%,0%);stroke-opacity:1;stroke-miterlimit:10;" d="M 127.453125 113.179688 L 153.570312 133.589844 "/>
<path style="fill:none;stroke-width:1.2;stroke-linecap:butt;stroke-linejoin:miter;stroke:rgb(0%,0%,0%);stroke-opacity:1;stroke-miterlimit:10;" d="M 134.867188 109.074219 L 155.761719 125.402344 "/>
<path style="fill:none;stroke-width:1.2;stroke-linecap:butt;stroke-linejoin:miter;stroke:rgb(0%,0%,0%);stroke-opacity:1;stroke-miterlimit:10;" d="M 132.066406 80.355469 L 127.453125 113.179688 "/>
<path style="fill:none;stroke-width:1.2;stroke-linecap:butt;stroke-linejoin:miter;stroke:rgb(0%,0%,0%);stroke-opacity:1;stroke-miterlimit:10;" d="M 153.570312 133.589844 L 184.304688 121.171875 "/>
<path style="fill:none;stroke-width:1.2;stroke-linecap:butt;stroke-linejoin:miter;stroke:rgb(0%,0%,0%);stroke-opacity:1;stroke-miterlimit:10;" d="M 184.304688 121.171875 L 188.921875 88.351562 "/>
<path style="fill:none;stroke-width:1.2;stroke-linecap:butt;stroke-linejoin:miter;stroke:rgb(0%,0%,0%);stroke-opacity:1;stroke-miterlimit:10;" d="M 192.488281 118.976562 L 196.183594 92.71875 "/>
<path style="fill:none;stroke-width:1.2;stroke-linecap:butt;stroke-linejoin:miter;stroke:rgb(0%,0%,0%);stroke-opacity:1;stroke-miterlimit:10;" d="M 210.421875 141.582031 L 184.304688 121.171875 "/>
<path style="fill:none;stroke-width:1.2;stroke-linecap:butt;stroke-linejoin:miter;stroke:rgb(0%,0%,0%);stroke-opacity:1;stroke-miterlimit:10;" d="M 188.921875 88.351562 L 162.800781 67.941406 "/>
<path style="fill:none;stroke-width:1.2;stroke-linecap:butt;stroke-linejoin:miter;stroke:rgb(0%,0%,0%);stroke-opacity:1;stroke-miterlimit:10;" d="M 188.921875 88.351562 L 204.289062 82.140625 "/>
<path style="fill:none;stroke-width:1.2;stroke-linecap:butt;stroke-linejoin:miter;stroke:rgb(0%,0%,100%);stroke-opacity:1;stroke-miterlimit:10;" d="M 204.289062 82.140625 L 219.65625 75.933594 "/>
<path style="fill:none;stroke-width:1.2;stroke-linecap:butt;stroke-linejoin:miter;stroke:rgb(0%,0%,0%);stroke-opacity:1;stroke-miterlimit:10;" d="M 162.800781 67.941406 L 132.066406 80.355469 "/>
<path style="fill:none;stroke-width:1.2;stroke-linecap:butt;stroke-linejoin:miter;stroke:rgb(0%,0%,0%);stroke-opacity:1;stroke-miterlimit:10;" d="M 162.648438 76.414062 L 138.0625 86.34375 "/>
<path style="fill:none;stroke-width:1.2;stroke-linecap:butt;stroke-linejoin:miter;stroke:rgb(0%,0%,100%);stroke-opacity:1;stroke-miterlimit:10;" d="M 219.65625 75.933594 L 232.714844 86.140625 "/>
<path style="fill:none;stroke-width:1.2;stroke-linecap:butt;stroke-linejoin:miter;stroke:rgb(0%,0%,0%);stroke-opacity:1;stroke-miterlimit:10;" d="M 232.714844 86.140625 L 245.773438 96.34375 "/>
<path style="fill:none;stroke-width:1.2;stroke-linecap:butt;stroke-linejoin:miter;stroke:rgb(0%,0%,100%);stroke-opacity:1;stroke-miterlimit:10;" d="M 217.464844 84.121094 L 227.910156 92.285156 "/>
<path style="fill:none;stroke-width:1.2;stroke-linecap:butt;stroke-linejoin:miter;stroke:rgb(0%,0%,0%);stroke-opacity:1;stroke-miterlimit:10;" d="M 227.910156 92.285156 L 238.359375 100.449219 "/>
<path style=" stroke:none;fill-rule:nonzero;fill:rgb(100%,100%,100%);fill-opacity:1;" d="M 214.65625 67.933594 L 224.65625 67.933594 L 224.65625 83.933594 L 214.65625 83.933594 Z M 214.65625 67.933594 "/>
<g style="fill:rgb(0%,0%,100%);fill-opacity:1;">
  <use xlink:href="#glyph0-1" x="214.65625" y="80.30957"/>
</g>
<path style="fill:none;stroke-width:1.2;stroke-linecap:butt;stroke-linejoin:miter;stroke:rgb(0%,0%,0%);stroke-opacity:1;stroke-miterlimit:10;" d="M 245.773438 96.34375 L 243.464844 112.757812 "/>
<path style="fill:none;stroke-width:1.2;stroke-linecap:butt;stroke-linejoin:miter;stroke:rgb(0%,0%,100%);stroke-opacity:1;stroke-miterlimit:10;" d="M 243.464844 112.757812 L 241.15625 129.167969 "/>
<path style="fill:none;stroke-width:1.2;stroke-linecap:butt;stroke-linejoin:miter;stroke:rgb(0%,0%,100%);stroke-opacity:1;stroke-miterlimit:10;" d="M 241.15625 129.167969 L 225.789062 135.375 "/>
<path style="fill:none;stroke-width:1.2;stroke-linecap:butt;stroke-linejoin:miter;stroke:rgb(0%,0%,0%);stroke-opacity:1;stroke-miterlimit:10;" d="M 225.789062 135.375 L 210.421875 141.582031 "/>
<path style="fill:none;stroke-width:1.2;stroke-linecap:butt;stroke-linejoin:miter;stroke:rgb(0%,0%,100%);stroke-opacity:1;stroke-miterlimit:10;" d="M 235.164062 123.179688 L 222.871094 128.144531 "/>
<path style="fill:none;stroke-width:1.2;stroke-linecap:butt;stroke-linejoin:miter;stroke:rgb(0%,0%,0%);stroke-opacity:1;stroke-miterlimit:10;" d="M 222.871094 128.144531 L 210.574219 133.109375 "/>
<path style=" stroke:none;fill-rule:nonzero;fill:rgb(100%,100%,100%);fill-opacity:1;" d="M 236.15625 121.167969 L 246.15625 121.167969 L 246.15625 137.167969 L 236.15625 137.167969 Z M 236.15625 121.167969 "/>
<g style="fill:rgb(0%,0%,100%);fill-opacity:1;">
  <use xlink:href="#glyph0-1" x="236.15625" y="133.543945"/>
</g>
<path style="fill:none;stroke-width:1.2;stroke-linecap:butt;stroke-linejoin:miter;stroke:rgb(0%,0%,0%);stroke-opacity:1;stroke-miterlimit:10;" d="M 210.421875 141.582031 L 208.117188 157.996094 "/>
<path style="fill:none;stroke-width:1.2;stroke-linecap:butt;stroke-linejoin:miter;stroke:rgb(0%,0%,100%);stroke-opacity:1;stroke-miterlimit:10;" d="M 208.117188 157.996094 L 205.808594 174.40625 "/>
<path style="fill:none;stroke-width:1.2;stroke-linecap:butt;stroke-linejoin:miter;stroke:rgb(0%,0%,100%);stroke-opacity:1;stroke-miterlimit:10;" d="M 205.808594 174.40625 L 218.867188 184.609375 "/>
<path style="fill:none;stroke-width:1.2;stroke-linecap:butt;stroke-linejoin:miter;stroke:rgb(0%,0%,0%);stroke-opacity:1;stroke-miterlimit:10;" d="M 218.867188 184.609375 L 231.925781 194.816406 "/>
<path style=" stroke:none;fill-rule:nonzero;fill:rgb(100%,100%,100%);fill-opacity:1;" d="M 195.808594 166.40625 L 215.808594 166.40625 L 215.808594 182.40625 L 195.808594 182.40625 Z M 195.808594 166.40625 "/>
<g style="fill:rgb(0%,0%,100%);fill-opacity:1;">
  <use xlink:href="#glyph0-1" x="195.808594" y="178.782227"/>
  <use xlink:href="#glyph0-2" x="205.77832" y="178.782227"/>
</g>
<path style="fill:none;stroke-width:1.2;stroke-linecap:butt;stroke-linejoin:miter;stroke:rgb(0%,0%,0%);stroke-opacity:1;stroke-miterlimit:10;" d="M 231.925781 194.816406 L 264.75 199.433594 "/>
<path style="fill:none;stroke-width:1.2;stroke-linecap:butt;stroke-linejoin:miter;stroke:rgb(0%,0%,0%);stroke-opacity:1;stroke-miterlimit:10;" d="M 244.339844 225.550781 L 231.925781 194.816406 "/>
<path style="fill:none;stroke-width:1.2;stroke-linecap:butt;stroke-linejoin:miter;stroke:rgb(0%,0%,0%);stroke-opacity:1;stroke-miterlimit:10;" d="M 264.75 199.433594 L 244.339844 225.550781 "/>
</g>
</svg>

<svg xmlns="http://www.w3.org/2000/svg" xmlns:xlink="http://www.w3.org/1999/xlink" width="300pt" height="300pt" viewBox="0 0 300 300"><defs><symbol overflow="visible"><path d="M.64 2.297v-11.47h6.5v11.47zm.735-.72h5.047V-8.436H1.375zm0 0"/></symbol><symbol overflow="visible" id="a"><path d="M1.28-9.484H3l4.203 7.937v-7.937h1.25V0H6.72L2.515-7.922V0H1.28zm0 0"/></symbol><symbol overflow="visible" id="b"><path d="M1.28-9.484h1.282v3.89H7.22v-3.89H8.5V0H7.22v-4.516H2.562V0H1.28zm0 0"/></symbol></defs><g><path fill="#fff" d="M0 0h300v300H0z"/><path d="M139.723 232.06l-13.06-10.205" stroke-width="1.2" stroke="#000" stroke-miterlimit="10" fill="none"/><path d="M126.664 221.855l-13.06-10.207M113.605 211.648l-15.367 6.21" stroke-width="1.2" stroke="#00f" stroke-miterlimit="10" fill="none"/><path d="M98.238 217.86l-15.367 6.206" stroke-width="1.2" stroke="#000" stroke-miterlimit="10" fill="none"/><path d="M113.605 211.648l2.31-16.41" stroke-width="1.2" stroke="#00f" stroke-miterlimit="10" fill="none"/><path d="M115.914 195.238l2.31-16.41" stroke-width="1.2" stroke="#000" stroke-miterlimit="10" fill="none"/><path d="M108.605 203.648h10v16h-10zm0 0" fill="#fff"/><use xlink:href="#a" x="108.605" y="216.024" fill="#00f"/><path d="M118.223 178.828l-26.12-20.41M92.102 158.418l-30.735 12.414M86.11 152.426l-24.59 9.933M96.72 125.594L92.1 158.418M61.367 170.832l-26.117-20.41M35.25 150.422l4.617-32.824M43.434 148.227l3.695-26.258M39.867 117.598l30.735-12.414M70.602 105.184l26.117 20.41M68.41 113.37l20.895 16.33M96.72 125.594l30.733-12.414M127.453 113.18l26.117 20.41M134.867 109.074l20.895 16.328M132.066 80.355l-4.613 32.825M153.57 133.59l30.735-12.418M184.305 121.172l4.617-32.82M192.488 118.977l3.696-26.258M210.422 141.582l-26.117-20.41M188.922 88.352l-26.12-20.41M188.922 88.352l15.367-6.21" stroke-width="1.2" stroke="#000" stroke-miterlimit="10" fill="none"/><path d="M204.29 82.14l15.366-6.206" stroke-width="1.2" stroke="#00f" stroke-miterlimit="10" fill="none"/><path d="M162.8 67.94l-30.734 12.415M162.648 76.414l-24.585 9.93" stroke-width="1.2" stroke="#000" stroke-miterlimit="10" fill="none"/><path d="M219.656 75.934l13.06 10.207" stroke-width="1.2" stroke="#00f" stroke-miterlimit="10" fill="none"/><path d="M232.715 86.14l13.058 10.204" stroke-width="1.2" stroke="#000" stroke-miterlimit="10" fill="none"/><path d="M217.465 84.12l10.445 8.165" stroke-width="1.2" stroke="#00f" stroke-miterlimit="10" fill="none"/><path d="M227.91 92.285l10.45 8.164" stroke-width="1.2" stroke="#000" stroke-miterlimit="10" fill="none"/><path d="M214.656 67.934h10v16h-10zm0 0" fill="#fff"/><use xlink:href="#a" x="214.656" y="80.31" fill="#00f"/><path d="M245.773 96.344l-2.308 16.414" stroke-width="1.2" stroke="#000" stroke-miterlimit="10" fill="none"/><path d="M243.465 112.758l-2.31 16.41M241.156 129.168l-15.367 6.207" stroke-width="1.2" stroke="#00f" stroke-miterlimit="10" fill="none"/><path d="M225.79 135.375l-15.368 6.207" stroke-width="1.2" stroke="#000" stroke-miterlimit="10" fill="none"/><path d="M235.164 123.18l-12.293 4.965" stroke-width="1.2" stroke="#00f" stroke-miterlimit="10" fill="none"/><path d="M222.87 128.145l-12.296 4.964" stroke-width="1.2" stroke="#000" stroke-miterlimit="10" fill="none"/><path d="M236.156 121.168h10v16h-10zm0 0" fill="#fff"/><use xlink:href="#a" x="236.156" y="133.544" fill="#00f"/><path d="M210.422 141.582l-2.305 16.414" stroke-width="1.2" stroke="#000" stroke-miterlimit="10" fill="none"/><path d="M208.117 157.996l-2.308 16.41M205.81 174.406l13.057 10.203" stroke-width="1.2" stroke="#00f" stroke-miterlimit="10" fill="none"/><path d="M218.867 184.61l13.06 10.206" stroke-width="1.2" stroke="#000" stroke-miterlimit="10" fill="none"/><path d="M195.81 166.406h20v16h-20zm0 0" fill="#fff"/><g fill="#00f"><use xlink:href="#a" x="195.809" y="178.782"/><use xlink:href="#b" x="205.778" y="178.782"/></g><path d="M231.926 194.816l32.824 4.618M244.34 225.55l-12.414-30.734M264.75 199.434l-20.41 26.117" stroke-width="1.2" stroke="#000" stroke-miterlimit="10" fill="none"/></g></svg>
